X: 11337
T: Eanach Dhúin
R: waltz
M: 3/4
K: Eminor
|:e>ed>^cA4|A>BA>G g2a2|aa/b/aa/b/a/g/e4|d3BA/B/HG3|
E>GA3Bc2B4|A/B/A<{B}AGg2a2|a/b/aa/b/a/g/e2d2|d A>GA3HA2|
zd ef/g/ ab3|za e>fgaa2|{g}aabaa2{b}a/g/ee2|d2dBABG2|
E3GA3B|cB3 ABA2|G2g2a4|aba2age2|d2dBA>GHA2:|

